!!!!SEGMENT: pl-wtm--r-704-m--007_moniuszko-stanislaw--widma-no-4.krn
!!!cenid: 18xx:3063
!!!COM: Moniuszko, Stanisław
!!!COM-rismid: pe30008351
!!!CDT: 1819/05/05-1872/06/04
!!!CNT: Polish
!!!GTL: Widma
!!!OTL: No. 4
!!!OMV: 007
!!!PDT: 1852
!!!AGN: Secular
!!!SMS-siglum: PL-Wtm
!!!SMS-shelfmark: R 704/M
!!!SMS-shelfwork: G
!!!SMS-variant:
!!!SMS-altvar:
!!!NIFC-rismid: 1001093778
!!!URL-scan: http://repozytorium.nifc.pl/skany/pl-wtm-nut--r704m
!!!ONB-nifc: UWAGA: skany 0023-0024. Nie wpisywać tekstu rosyjskiego i samodzielnych dialogów poza krótkimi didaskaliami.
!!!key:
**kern	**kern	**dynam	**kern	**text	**text	**dynam	**kern	**text	**dynam	**kern	**text	**text	**dynam	**kern	**text	**text	**dynam	**kern	**text	**text	**dynam
*part6	*part6	*part6	*part5	*part5	*part5	*part5	*part4	*part4	*part4	*part3	*part3	*part3	*part3	*part2	*part2	*part2	*part2	*part1	*part1	*part1	*part1
*staff7	*staff6	*	*staff5	*staff5	*staff5	*	*staff4	*staff4	*	*staff3	*staff3	*staff3	*	*staff2	*staff2	*staff2	*	*staff1	*staff1	*staff1	*
*Iforte	*Iforte	*	*Iempty	*	*	*	*Itenor	*	*	*Ialto	*	*	*	*Isoprn	*	*	*	*Iempty	*	*	*
*I"Forte Piano.	*I"Forte Piano.	*	*I"[Basso]	*	*	*	*I"[Tenore]	*	*	*I"[Alto]	*	*	*	*I"[Soprano]	*	*	*	*I"Guślarz. L'incantatore	*	*	*
*clefF4	*clefG2	*	*clefF4	*	*	*	*clefG2	*	*	*clefG2	*	*	*	*clefG2	*	*	*	*clefF4	*	*	*
*	*	*	*	*	*	*	*ITrd8c12	*	*	*	*	*	*	*	*	*	*	*	*	*	*
*k[f#c#g#]	*k[f#c#g#]	*	*k[f#c#g#]	*	*	*	*k[f#c#g#]	*	*	*k[f#c#g#]	*	*	*	*k[f#c#g#]	*	*	*	*k[f#c#g#]	*	*	*
*f#:	*f#:	*	*f#:	*	*	*	*f#:	*	*	*f#:	*	*	*	*f#:	*	*	*	*f#:	*	*	*
*M4/4	*M4/4	*	*M4/4	*	*	*	*M4/4	*	*	*M4/4	*	*	*	*M4/4	*	*	*	*M4/4	*	*	*
*met(c)	*met(c)	*	*met(c)	*	*	*	*met(c)	*	*	*met(c)	*	*	*	*met(c)	*	*	*	*met(c)	*	*	*
=1	=1	=1	=1	=1	=1	=1	=1	=1	=1	=1	=1	=1	=1	=1	=1	=1	=1	=1	=1	=1	=1
*2\right	*2\right	*	*2\right	*	*	*	*2\right	*	*	*2\right	*	*	*	*2\right	*	*	*	*2\right	*	*	*
!	!	!	!	!	!	!	!	!	!	!	!	!	!	!	!	!	!	!LO:TX:a:t=P:problem= "L'incantatore" dopisane czerwonym atramentem	!	!	!
!	!LO:TX:B:a:t=Moderato.	!	!	!	!	!	!	!	!	!	!	!	!	!	!	!	!	!LO:TX:B:a:t=Moderato.	!	!	!
!	!	!LO:DY:b:t=p.:rj	!	!	!	!	!	!	!	!	!	!	!	!	!	!	!	!LO:TX:B:a:t=quasi Andantino:color=blue	!	!	!
2r	8cc#L 8a 8f#'</	p	1ryy	.	.	.	1ryy	.	.	1ryy	.	.	.	1ryy	.	.	.	1r	.	.	.
.	8cc# 8a 8f#'</	.	.	.	.	.	.	.	.	.	.	.	.	.	.	.	.	.	.	.	.
.	8cc# 8a 8f#'</	.	.	.	.	.	.	.	.	.	.	.	.	.	.	.	.	.	.	.	.
.	8cc#J 8a 8f#'</	.	.	.	.	.	.	.	.	.	.	.	.	.	.	.	.	.	.	.	.
*	*tremolo	*	*	*	*	*	*	*	*	*	*	*	*	*	*	*	*	*	*	*	*
!	!LO:TX:a:t=P:problem=4 kropki pod nutą	!	!	!	!	!	!	!	!	!	!	!	!	!	!	!	!	!	!	!	!
4r	8cc#L 8a 8f#'</	.	.	.	.	.	.	.	.	.	.	.	.	.	.	.	.	.	.	.	.
.	8cc# 8a 8f#'</	.	.	.	.	.	.	.	.	.	.	.	.	.	.	.	.	.	.	.	.
8.r	8cc# 8a 8f#'</	.	.	.	.	.	.	.	.	.	.	.	.	.	.	.	.	.	.	.	.
.	8cc#J 8a 8f#'</	.	.	.	.	.	.	.	.	.	.	.	.	.	.	.	.	.	.	.	.
*clefG2	*	*	*	*	*	*	*	*	*	*	*	*	*	*	*	*	*	*	*	*	*
!	!	!LO:DY:b=2:t=f.:rj	!	!	!	!	!	!	!	!	!	!	!	!	!	!	!	!	!	!	!
16c#/	.	f	.	.	.	.	.	.	.	.	.	.	.	.	.	.	.	.	.	.	.
=2	=2	=2	=2	=2	=2	=2	=2	=2	=2	=2	=2	=2	=2	=2	=2	=2	=2	=2	=2	=2	=2
!	!	!LO:DY:b:t=p.:rj	!	!	!	!	!	!	!	!	!	!	!	!	!	!	!	!	!	!	!
4..f#/	8cc#L 8a/	p	1ryy	.	.	.	1ryy	.	.	1ryy	.	.	.	1ryy	.	.	.	1r	.	.	.
.	8cc# 8a/	.	.	.	.	.	.	.	.	.	.	.	.	.	.	.	.	.	.	.	.
.	8cc# 8a/	.	.	.	.	.	.	.	.	.	.	.	.	.	.	.	.	.	.	.	.
.	8cc#J 8a/	.	.	.	.	.	.	.	.	.	.	.	.	.	.	.	.	.	.	.	.
16c#/	.	.	.	.	.	.	.	.	.	.	.	.	.	.	.	.	.	.	.	.	.
4..g#/	8cc#L 8b 8e#X/	.	.	.	.	.	.	.	.	.	.	.	.	.	.	.	.	.	.	.	.
.	8cc# 8b 8e#/	.	.	.	.	.	.	.	.	.	.	.	.	.	.	.	.	.	.	.	.
.	8cc# 8b 8e#/	.	.	.	.	.	.	.	.	.	.	.	.	.	.	.	.	.	.	.	.
.	8cc#J 8b 8e#/	.	.	.	.	.	.	.	.	.	.	.	.	.	.	.	.	.	.	.	.
16c#/	.	.	.	.	.	.	.	.	.	.	.	.	.	.	.	.	.	.	.	.	.
=3	=3	=3	=3	=3	=3	=3	=3	=3	=3	=3	=3	=3	=3	=3	=3	=3	=3	=3	=3	=3	=3
(<2.a/	8cc#L 8f#/	.	1ryy	.	.	.	1ryy	.	.	1ryy	.	.	.	1ryy	.	.	.	1r	.	.	.
.	8cc# 8f#/	.	.	.	.	.	.	.	.	.	.	.	.	.	.	.	.	.	.	.	.
.	8cc# 8f#/	.	.	.	.	.	.	.	.	.	.	.	.	.	.	.	.	.	.	.	.
.	8cc#J 8f#/	.	.	.	.	.	.	.	.	.	.	.	.	.	.	.	.	.	.	.	.
.	.	.	.	.	.	.	.	.	.	.	.	.	.	.	.	.	.	.	.	.	.
.	(<8ff#L 8cc#/	.	.	.	.	.	.	.	.	.	.	.	.	.	.	.	.	.	.	.	.
.	8cc# 8f#/)	.	.	.	.	.	.	.	.	.	.	.	.	.	.	.	.	.	.	.	.
.	.	.	.	.	.	.	.	.	.	.	.	.	.	.	.	.	.	.	.	.	.
8g#/L	8cc# 8a|</	.	.	.	.	.	.	.	.	.	.	.	.	.	.	.	.	.	.	.	.
8f#/J)	8cc#J 8a|</	.	.	.	.	.	.	.	.	.	.	.	.	.	.	.	.	.	.	.	.
.	.	.	.	.	.	.	.	.	.	.	.	.	.	.	.	.	.	.	.	.	.
!!LO:LB:g=original
=4	=4	=4	=4	=4	=4	=4	=4	=4	=4	=4	=4	=4	=4	=4	=4	=4	=4	=4	=4	=4	=4
(<4e/	8cc#L 8a/	.	1ryy	.	.	.	1ryy	.	.	1ryy	.	.	.	1ryy	.	.	.	2r	.	.	.
.	8cc# 8a/	.	.	.	.	.	.	.	.	.	.	.	.	.	.	.	.	.	.	.	.
8d/L	8b 8a/	.	.	.	.	.	.	.	.	.	.	.	.	.	.	.	.	.	.	.	.
8c#/J	8cc#J 8a 8f#/	.	.	.	.	.	.	.	.	.	.	.	.	.	.	.	.	.	.	.	.
4B/	8ddL 8a 8f#/	.	.	.	.	.	.	.	.	.	.	.	.	.	.	.	.	4r	.	.	.
.	8dd 8g# 8f#/	.	.	.	.	.	.	.	.	.	.	.	.	.	.	.	.	.	.	.	.
*	*	*	*	*	*	*	*	*	*	*	*	*	*	*	*	*	*	*	*	*color:red	*
4c#/)	8cc# 8g# 8f#/	.	.	.	.	.	.	.	.	.	.	.	.	.	.	.	.	8.C#/	Da-	O-	.
.	8cc#J 8g# 8e#X/	.	.	.	.	.	.	.	.	.	.	.	.	.	.	.	.	.	.	.	.
.	.	.	.	.	.	.	.	.	.	.	.	.	.	.	.	.	.	16C#/	-lej	-ra a	.
=5	=5	=5	=5	=5	=5	=5	=5	=5	=5	=5	=5	=5	=5	=5	=5	=5	=5	=5	=5	=5	=5
!	!LO:TX:a:t=P:problem=4 kropki pod nutą	!LO:DY:b:t=fp.:color=black	!	!	!	!	!	!	!	!	!	!	!	!	!	!	!	!	!	!	!
[<1F#	8cc#L 8a 8f#'</	fp	1ryy	.	.	.	1ryy	.	.	1ryy	.	.	.	1ryy	.	.	.	4..F#\	wy	voi,	.
.	8cc# 8a 8f#'</	.	.	.	.	.	.	.	.	.	.	.	.	.	.	.	.	.	.	.	.
.	8cc# 8a 8f#'</	.	.	.	.	.	.	.	.	.	.	.	.	.	.	.	.	.	.	.	.
.	8cc#J 8a 8f#'</	.	.	.	.	.	.	.	.	.	.	.	.	.	.	.	.	.	.	.	.
.	.	.	.	.	.	.	.	.	.	.	.	.	.	.	.	.	.	16C#\	z naj-	del	.
!	!LO:TX:a:t=P:problem=4 kropki pod nutą	!	!	!	!	!	!	!	!	!	!	!	!	!	!	!	!	!	!	!	!
.	8cc#L 8b 8e#X'</	.	.	.	.	.	.	.	.	.	.	.	.	.	.	.	.	4..G#\	-cięż-	l'al-	.
.	8cc# 8b 8e#'</	.	.	.	.	.	.	.	.	.	.	.	.	.	.	.	.	.	.	.	.
.	8cc# 8b 8e#'</	.	.	.	.	.	.	.	.	.	.	.	.	.	.	.	.	.	.	.	.
.	8cc#J 8b 8e#'</	.	.	.	.	.	.	.	.	.	.	.	.	.	.	.	.	.	.	.	.
.	.	.	.	.	.	.	.	.	.	.	.	.	.	.	.	.	.	16C#\	-szym	-ma	.
=6	=6	=6	=6	=6	=6	=6	=6	=6	=6	=6	=6	=6	=6	=6	=6	=6	=6	=6	=6	=6	=6
*	*	*	*	*	*	*	*	*	*	*	*	*	*	*	*	*	*	*2\right	*	*	*
!	!LO:TX:a:t=P:problem=4 kropki pod nutą	!	!	!	!	!	!	!	!	!	!	!	!	!	!	!	!	!	!	!	!
4F#/]	8cc#L 8a 8f#'</	.	1ryy	.	.	.	1ryy	.	.	1ryy	.	.	.	1ryy	.	.	.	[>2A\	da-	gre-	.
.	8cc# 8a 8f#'</	.	.	.	.	.	.	.	.	.	.	.	.	.	.	.	.	.	.	.	.
4r	8cc# 8a 8f#'</	.	.	.	.	.	.	.	.	.	.	.	.	.	.	.	.	.	.	.	.
.	8cc#J 8a 8f#'</	.	.	.	.	.	.	.	.	.	.	.	.	.	.	.	.	.	.	.	.
2r	(<8ff#L 8cc# 8a/	.	.	.	.	.	.	.	.	.	.	.	.	.	.	.	.	8A\L]	.	.	.
.	8cc# 8f#/)	.	.	.	.	.	.	.	.	.	.	.	.	.	.	.	.	8B\J	.	.	.
.	8cc# 8a 8f#'</	.	.	.	.	.	.	.	.	.	.	.	.	.	.	.	.	8A\L	-chem,	-ve	.
.	8cc#J 8a 8f#'</	.	.	.	.	.	.	.	.	.	.	.	.	.	.	.	.	8G#\J	.	.	.
*clefF4	*	*	*	*	*	*	*	*	*	*	*	*	*	*	*	*	*	*	*	*	*
!!LO:LB:g=original
=7	=7	=7	=7	=7	=7	=7	=7	=7	=7	=7	=7	=7	=7	=7	=7	=7	=7	=7	=7	=7	=7
(>4F#\	8cc#L 8a 8f#/	.	1ryy	.	.	.	1ryy	.	.	1ryy	.	.	.	1ryy	.	.	.	4F#\	coś-	che ad	.
.	8cc# 8a 8f#/	.	.	.	.	.	.	.	.	.	.	.	.	.	.	.	.	.	.	.	.
8D\L	8b 8f#/	.	.	.	.	.	.	.	.	.	.	.	.	.	.	.	.	8D\	-cie	i-	.
8C#\J	8cc#J 8a 8f#/	.	.	.	.	.	.	.	.	.	.	.	.	.	.	.	.	8C#\	do	-spi-	.
!	!LO:TX:a:t=P:problem=2 kropki pod nutą	!	!	!	!	!	!	!	!	!	!	!	!	!	!	!	!	!	!	!	!
4BB\	8ddL 8b 8f#'</	.	.	.	.	.	.	.	.	.	.	.	.	.	.	.	.	4BB/	te-	-ar	.
.	8ddJ 8b 8f#'</	.	.	.	.	.	.	.	.	.	.	.	.	.	.	.	.	.	.	.	.
!	!LO:TX:a:t=P:problem=2 kropki pod nutą	!	!	!	!	!	!	!	!	!	!	!	!	!	!	!	!	!	!	!	!
4C#\)	8cc#L 8a 8f#'</	.	.	.	.	.	.	.	.	.	.	.	.	.	.	.	.	8.C#/	-go	vo-	.
.	8cc#J 8a 8f#'</	.	.	.	.	.	.	.	.	.	.	.	.	.	.	.	.	.	.	.	.
.	.	.	.	.	.	.	.	.	.	.	.	.	.	.	.	.	.	16C#/	pa-	-stra	.
=8	=8	=8	=8	=8	=8	=8	=8	=8	=8	=8	=8	=8	=8	=8	=8	=8	=8	=8	=8	=8	=8
!	!LO:TX:a:t=P:problem=4 kropki pod nutą	!	!	!	!	!	!	!	!	!	!	!	!	!	!	!	!	!	!	!	!
[>1D [<1DD^>	8bL 8f#'</	.	1ryy	.	.	.	1ryy	.	.	1ryy	.	.	.	1ryy	.	.	.	2.D\	-do-	pe-	.
.	8b 8f#'</	.	.	.	.	.	.	.	.	.	.	.	.	.	.	.	.	.	.	.	.
.	8b 8f#'</	.	.	.	.	.	.	.	.	.	.	.	.	.	.	.	.	.	.	.	.
.	8bJ 8f#'</	.	.	.	.	.	.	.	.	.	.	.	.	.	.	.	.	.	.	.	.
.	(<8ff#L 8dd 8b/	.	.	.	.	.	.	.	.	.	.	.	.	.	.	.	.	.	.	.	.
.	8dd 8b 8f#/)	.	.	.	.	.	.	.	.	.	.	.	.	.	.	.	.	.	.	.	.
.	8dd 8b 8f#'</	.	.	.	.	.	.	.	.	.	.	.	.	.	.	.	.	8F#\	-łu	-na	.
.	8ddJ 8b 8f#'</	.	.	.	.	.	.	.	.	.	.	.	.	.	.	.	.	8B\	przy-	nel	.
*	*Xtremolo	*	*	*	*	*	*	*	*	*	*	*	*	*	*	*	*	*	*	*	*
=9	=9	=9	=9	=9	=9	=9	=9	=9	=9	=9	=9	=9	=9	=9	=9	=9	=9	=9	=9	=9	=9
4D] 4DD/]	8bL 8g# 8f#/	.	1ryy	.	.	.	1ryy	.	.	1ryy	.	.	.	1ryy	.	.	.	4.d\	-ku-	mon-	.
.	8b 8g# 8f#/	.	.	.	.	.	.	.	.	.	.	.	.	.	.	.	.	.	.	.	.
4r	8b 8g# 8f#/	.	.	.	.	.	.	.	.	.	.	.	.	.	.	.	.	.	.	.	.
.	8cc#J 8a 8f#/	.	.	.	.	.	.	.	.	.	.	.	.	.	.	.	.	8c#\	-ci	-do a	.
4r	8ddL 8b 8f#/	.	.	.	.	.	.	.	.	.	.	.	.	.	.	.	.	8B\L	zbro-	stier-	.
.	8dd 8b 8f#/	.	.	.	.	.	.	.	.	.	.	.	.	.	.	.	.	8A\J	.	.	.
8r	8dd 8b 8e#X/	.	.	.	.	.	.	.	.	.	.	.	.	.	.	.	.	8G#\	-dni	-ge	.
8F#\	8ddJ 8b 8f#/	.	.	.	.	.	.	.	.	.	.	.	.	.	.	.	.	8F#\	łań-	dei	.
!!LO:LB:g=original
=10	=10	=10	=10	=10	=10	=10	=10	=10	=10	=10	=10	=10	=10	=10	=10	=10	=10	=10	=10	=10	=10
*	*^	*	*	*	*	*	*	*	*	*	*	*	*	*	*	*	*	*	*	*	*
(>2E#X\	12ddL 12b/	(<2g#\	.	1ryy	.	.	.	1ryy	.	.	1ryy	.	.	.	1ryy	.	.	.	2E#X\	-cu-	vi-	.
.	12cc# 12a#X/	.	.	.	.	.	.	.	.	.	.	.	.	.	.	.	.	.	.	.	.	.
.	12ddJ 12b/	.	.	.	.	.	.	.	.	.	.	.	.	.	.	.	.	.	.	.	.	.
.	8ddL 8b/	.	.	.	.	.	.	.	.	.	.	.	.	.	.	.	.	.	.	.	.	.
.	8ddJ 8b/	.	.	.	.	.	.	.	.	.	.	.	.	.	.	.	.	.	.	.	.	.
*	*tremolo	*	*	*	*	*	*	*	*	*	*	*	*	*	*	*	*	*	*	*	*	*
4F#\	8ddL 8b/	2f#\)	.	.	.	.	.	.	.	.	.	.	.	.	.	.	.	.	4F#\	-chem	-vi	.
.	8dd 8b/	.	.	.	.	.	.	.	.	.	.	.	.	.	.	.	.	.	.	.	.	.
4G#\)	8dd 8b/	.	.	.	.	.	.	.	.	.	.	.	.	.	.	.	.	.	8G#\	z cia-	di	.
.	8ddJ 8b/	.	.	.	.	.	.	.	.	.	.	.	.	.	.	.	.	.	8G#\	-łem	de-	.
*	*Xtremolo	*	*	*	*	*	*	*	*	*	*	*	*	*	*	*	*	*	*	*	*	*
=11	=11	=11	=11	=11	=11	=11	=11	=11	=11	=11	=11	=11	=11	=11	=11	=11	=11	=11	=11	=11	=11	=11
*	*Xtuplet	*	*	*	*	*	*	*	*	*	*	*	*	*	*	*	*	*	*	*	*	*
(>1C# (<1CC#^>	(<12ddL 12b/	2e#X\	.	1ryy	.	.	.	1ryy	.	.	1ryy	.	.	.	1ryy	.	.	.	4C#/	i	-lit-	.
.	12cc# 12g#/)	.	.	.	.	.	.	.	.	.	.	.	.	.	.	.	.	.	.	.	.	.
.	12cc#'<J 12g#/	.	.	.	.	.	.	.	.	.	.	.	.	.	.	.	.	.	.	.	.	.
*	*tremolo	*	*	*	*	*	*	*	*	*	*	*	*	*	*	*	*	*	*	*	*	*
!	!LO:TX:a:t=P:problem=2 kropki pod nutą	!	!	!	!	!	!	!	!	!	!	!	!	!	!	!	!	!	!	!	!	!
.	8cc#'<L 8g#/	.	.	.	.	.	.	.	.	.	.	.	.	.	.	.	.	.	4B\	du-	-ti u -	.
.	8cc#'<J 8g#/	.	.	.	.	.	.	.	.	.	.	.	.	.	.	.	.	.	.	.	.	.
.	8cc#L 8a/	4f#\	.	.	.	.	.	.	.	.	.	.	.	.	.	.	.	.	4A\	-szą	-na	.
.	8cc#J 8a/	.	.	.	.	.	.	.	.	.	.	.	.	.	.	.	.	.	.	.	.	.
.	8cc#L 8b/	4g#\	.	.	.	.	.	.	.	.	.	.	.	.	.	.	.	.	4G#\	po-	ca-	.
.	8cc#J 8b/	.	.	.	.	.	.	.	.	.	.	.	.	.	.	.	.	.	.	.	.	.
*	*v	*v	*	*	*	*	*	*	*	*	*	*	*	*	*	*	*	*	*	*	*	*
=12	=12	=12	=12	=12	=12	=12	=12	=12	=12	=12	=12	=12	=12	=12	=12	=12	=12	=12	=12	=12	=12
!	!LO:TX:a:t=P:problem=2 kropki pod nutą	!	!	!	!	!	!	!	!	!	!	!	!	!	!	!	!	!	!	!	!
4FF#/))	8cc#'<L 8b 8g#/	.	1ryy	.	.	.	1ryy	.	.	1ryy	.	.	.	1ryy	.	.	.	2A\	-spo-	-te-	.
.	8cc#'<J 8b 8g#/	.	.	.	.	.	.	.	.	.	.	.	.	.	.	.	.	.	.	.	.
!	!LO:TX:a:t=P:problem=2 kropki pod nutą	!	!	!	!	!	!	!	!	!	!	!	!	!	!	!	!	!	!	!	!
4r	8cc#'<L 8a 8f#/	.	.	.	.	.	.	.	.	.	.	.	.	.	.	.	.	.	.	.	.
.	8cc#'<J 8a 8f#/	.	.	.	.	.	.	.	.	.	.	.	.	.	.	.	.	.	.	.	.
2r	(<8ff#L 8cc# 8a/	.	.	.	.	.	.	.	.	.	.	.	.	.	.	.	.	8A\	-łu.	-na	.
.	8cc#J 8a 8f#/)	.	.	.	.	.	.	.	.	.	.	.	.	.	.	.	.	8r	.	.	.
!	!LO:TX:a:t=P:problem=2 kropki pod nutą	!	!	!	!	!	!	!	!	!	!	!	!	!	!	!	!	!	!	!	!
.	8cc#'<L 8a 8f#/	.	.	.	.	.	.	.	.	.	.	.	.	.	.	.	.	8A\L	Choć	Ben-	.
.	8cc#'<J 8a 8f#/	.	.	.	.	.	.	.	.	.	.	.	.	.	.	.	.	8B\J	.	.	.
!!LO:LB:g=original
=13	=13	=13	=13	=13	=13	=13	=13	=13	=13	=13	=13	=13	=13	=13	=13	=13	=13	=13	=13	=13	=13
!	!	!LO:DY:b:rj	!	!	!	!	!	!	!	!	!	!	!	!	!	!	!	!	!	!	!LO:DY:a:rj
2cn\	8ccnL 8a 8e/	mf	1ryy	.	.	.	1ryy	.	.	1ryy	.	.	.	1ryy	.	.	.	4.cn\	zgon	-che	mf
.	8cc 8a 8e/	.	.	.	.	.	.	.	.	.	.	.	.	.	.	.	.	.	.	.	.
.	8cc 8a 8e/	.	.	.	.	.	.	.	.	.	.	.	.	.	.	.	.	.	.	.	.
.	8ccJ 8a 8e/	.	.	.	.	.	.	.	.	.	.	.	.	.	.	.	.	8c\	le-	su	.
2Cn/	8eeL 8a 8e/	.	.	.	.	.	.	.	.	.	.	.	.	.	.	.	.	4Cn/	-pian-	voi	.
.	8ee 8a 8e/	.	.	.	.	.	.	.	.	.	.	.	.	.	.	.	.	.	.	.	.
.	8ee 8a 8e/	.	.	.	.	.	.	.	.	.	.	.	.	.	.	.	.	8C/	-kę	l'a-	.
.	8eeJ 8a 8e/	.	.	.	.	.	.	.	.	.	.	.	.	.	.	.	.	8C/	ros-	-la-	.
=14	=14	=14	=14	=14	=14	=14	=14	=14	=14	=14	=14	=14	=14	=14	=14	=14	=14	=14	=14	=14	=14
2.BB 2.BBB/	(>8eeL 8b 8f#/	.	1ryy	.	.	.	1ryy	.	.	1ryy	.	.	.	1ryy	.	.	.	2BB/	-kru-	-bru-	.
.	8dd#XJ 8b 8f#/)	.	.	.	.	.	.	.	.	.	.	.	.	.	.	.	.	.	.	.	.
!	!LO:TX:a:t=P:problem=2 kropki pod nutą	!	!	!	!	!	!	!	!	!	!	!	!	!	!	!	!	!	!	!	!
.	8dd#'<L 8b 8f#/	.	.	.	.	.	.	.	.	.	.	.	.	.	.	.	.	.	.	.	.
.	8dd#'<J 8b 8f#/	.	.	.	.	.	.	.	.	.	.	.	.	.	.	.	.	.	.	.	.
.	(>8ff#L 8b 8f#/	.	.	.	.	.	.	.	.	.	.	.	.	.	.	.	.	8B\	-szy,	-na	.
.	8dd#J 8b 8f#/)	.	.	.	.	.	.	.	.	.	.	.	.	.	.	.	.	8r	.	.	.
!	!LO:TX:a:t=P:problem=2 kropki pod nutą	!	!	!	!	!	!	!	!	!	!	!	!	!	!	!	!	!	!	!	!
8B\L	8dd#'<L 8b 8f#/	.	.	.	.	.	.	.	.	.	.	.	.	.	.	.	.	8B\	choć	l'an-	.
8c#\J	8dd#'<J 8b 8f#/	.	.	.	.	.	.	.	.	.	.	.	.	.	.	.	.	8c#\	was	-giol	.
=15	=15	=15	=15	=15	=15	=15	=15	=15	=15	=15	=15	=15	=15	=15	=15	=15	=15	=15	=15	=15	=15
2d\	8ddnL 8b 8f#/	.	1ryy	.	.	.	1ryy	.	.	1ryy	.	.	.	1ryy	.	.	.	4.d\	a-	ste-	.
.	8ddn 8b 8f#/	.	.	.	.	.	.	.	.	.	.	.	.	.	.	.	.	.	.	.	.
.	8ddn 8b 8f#/	.	.	.	.	.	.	.	.	.	.	.	.	.	.	.	.	.	.	.	.
.	8ddnJ 8b 8f#/	.	.	.	.	.	.	.	.	.	.	.	.	.	.	.	.	8d\	-nioł	-se	.
2D\	8ff#L 8b 8f#/	.	.	.	.	.	.	.	.	.	.	.	.	.	.	.	.	4.D/	smier-	del-	.
.	8ff# 8b 8f#/	.	.	.	.	.	.	.	.	.	.	.	.	.	.	.	.	.	.	.	.
.	8ff# 8b 8f#/	.	.	.	.	.	.	.	.	.	.	.	.	.	.	.	.	.	.	.	.
.	8ff#J 8b 8f#/	.	.	.	.	.	.	.	.	.	.	.	.	.	.	.	.	8D/	-ci	-la	.
!!LO:PB:g=original
=16	=16	=16	=16	=16	=16	=16	=16	=16	=16	=16	=16	=16	=16	=16	=16	=16	=16	=16	=16	=16	=16
*	*Xtremolo	*	*	*	*	*	*	*	*	*	*	*	*	*	*	*	*	*	*	*	*
2.C# 2.CC#/	(<8ff#L 8dd 8b/	.	1ryy	.	.	.	1ryy	.	.	1ryy	.	.	.	1ryy	.	.	.	2.C#/	wo-	mor-	.
.	8ee#X 8b 8g#/)	.	.	.	.	.	.	.	.	.	.	.	.	.	.	.	.	.	.	.	.
.	8ee# 8b 8g#'</	.	.	.	.	.	.	.	.	.	.	.	.	.	.	.	.	.	.	.	.
.	8ee#J 8b 8g#'</	.	.	.	.	.	.	.	.	.	.	.	.	.	.	.	.	.	.	.	.
.	(<8gg#L 8cc# 8b/	.	.	.	.	.	.	.	.	.	.	.	.	.	.	.	.	.	.	.	.
.	8cc# 8b 8g#/)	.	.	.	.	.	.	.	.	.	.	.	.	.	.	.	.	.	.	.	.
8.r	8cc# 8b 8g#'</	.	.	.	.	.	.	.	.	.	.	.	.	.	.	.	.	4C#/	-ła;	-te,	.
.	8cc#J 8b 8g#'</	.	.	.	.	.	.	.	.	.	.	.	.	.	.	.	.	.	.	.	.
16C#/	.	.	.	.	.	.	.	.	.	.	.	.	.	.	.	.	.	.	.	.	.
=17	=17	=17	=17	=17	=17	=17	=17	=17	=17	=17	=17	=17	=17	=17	=17	=17	=17	=17	=17	=17	=17
4..F#^>\	(<8cc#L 8a 8g#/	.	1ryy	.	.	.	1ryy	.	.	1ryy	.	.	.	1ryy	.	.	.	4F#\	ży-	gra-	.
.	8cc#J 8a 8f#/)	.	.	.	.	.	.	.	.	.	.	.	.	.	.	.	.	.	.	.	.
*	*tremolo	*	*	*	*	*	*	*	*	*	*	*	*	*	*	*	*	*	*	*	*
!	!LO:TX:a:t=P:problem=2 kropki pod nutą	!	!	!	!	!	!	!	!	!	!	!	!	!	!	!	!	!	!	!	!
.	8cc#'<L 8a 8f#/	.	.	.	.	.	.	.	.	.	.	.	.	.	.	.	.	8.C#\	-wot	-zia	.
.	8cc#'<J 8a 8f#/	.	.	.	.	.	.	.	.	.	.	.	.	.	.	.	.	.	.	.	.
16C#\	.	.	.	.	.	.	.	.	.	.	.	.	.	.	.	.	.	16C#\	z cie-	non	.
!	!	!LO:HP:b	!	!	!	!	!	!	!	!	!	!	!	!	!	!	!	!LO:TX:t=P:problem=nieczytelny zapis w języku włoskim	!	!	!
4..G#\	(<8cc#L 8g# 8f#/	<	.	.	.	.	.	.	.	.	.	.	.	.	.	.	.	4G#\	-les-	setiu-	.
.	8ee#X 8cc# 8g# 8e#X/)	.	.	.	.	.	.	.	.	.	.	.	.	.	.	.	.	.	.	.	.
.	8gg# 8ee# 8cc#'</	.	.	.	.	.	.	.	.	.	.	.	.	.	.	.	.	8.C#\	-nej	-de-	.
.	8bbJ 8ee# 8b'</	.	.	.	.	.	.	.	.	.	.	.	.	.	.	.	.	.	.	.	.
16C#\	.	[	.	.	.	.	.	.	.	.	.	.	.	.	.	.	.	16C#\	ka-	-vial-	.
!!LO:LB:g=original
=18	=18	=18	=18	=18	=18	=18	=18	=18	=18	=18	=18	=18	=18	=18	=18	=18	=18	=18	=18	=18	=18
!	!LO:TX:a:t=P:problem=4 kropki nad nutą	!LO:HP:b	!	!	!	!	!	!	!	!	!	!	!	!	!	!	!	!	!	!	!
(>2c#\	(>8aa'>L 8ff# 8a\	>	1ryy	.	.	.	1ryy	.	.	1ryy	.	.	.	1ryy	.	.	.	(>2c#\	-tu-	-cu-	.
.	8aa'> 8ff# 8a\	.	.	.	.	.	.	.	.	.	.	.	.	.	.	.	.	.	.	.	.
.	8aa'> 8ff# 8a\	.	.	.	.	.	.	.	.	.	.	.	.	.	.	.	.	.	.	.	.
.	8aa'>J 8ff# 8a\	.	.	.	.	.	.	.	.	.	.	.	.	.	.	.	.	.	.	.	.
!	!LO:TX:a:t=P:problem=2 kropki nad nutą	!	!	!	!	!	!	!	!	!	!	!	!	!	!	!	!	!	!	!	!
4B#X\	8gg#'>L 8dd#X\	.	.	.	.	.	.	.	.	.	.	.	.	.	.	.	.	4B#X\	-szy	-na	.
.	8gg#'>J 8dd#\	.	.	.	.	.	.	.	.	.	.	.	.	.	.	.	.	.	.	.	.
!	!LO:TX:a:t=P:problem=2 kropki nad nutą	!	!	!	!	!	!	!	!	!	!	!	!	!	!	!	!	!	!	!	!
4Bn\	8ggn'>L 8ee 8ddn\	]	.	.	.	.	.	.	.	.	.	.	.	.	.	.	.	8Bn\	do-	dell'	.
.	8gg'>J 8ee 8dd\	.	.	.	.	.	.	.	.	.	.	.	.	.	.	.	.	8B\	-tąd	e-	.
=19	=19	=19	=19	=19	=19	=19	=19	=19	=19	=19	=19	=19	=19	=19	=19	=19	=19	=19	=19	=19	=19
!	!LO:TX:a:t=P:problem=2 kropki pod nutą	!LO:DY:b:t=pp.:color=black	!	!	!	!	!	!	!	!	!	!	!	!	!	!	!	!	!	!	!
4A#X\	8ff#'</L 8ee/ 8cc#/)	pp	1ryy	.	.	.	1ryy	.	.	1ryy	.	.	.	1ryy	.	.	.	4A#X\	wy-	-ter-	.
.	8ff#'<J 8ee 8cc#\	.	.	.	.	.	.	.	.	.	.	.	.	.	.	.	.	.	.	.	.
4B\	(<8ff#L 8dd 8cc#/	.	.	.	.	.	.	.	.	.	.	.	.	.	.	.	.	4B\	-drzeć	-ni-	.
.	8ff#J 8dd 8b/)	.	.	.	.	.	.	.	.	.	.	.	.	.	.	.	.	.	.	.	.
4F#\	(<8ff#L 8cc# 8b/	.	.	.	.	.	.	.	.	.	.	.	.	.	.	.	.	4F#\	się	-ta	.
.	8cc#J 8a 8f#/)	.	.	.	.	.	.	.	.	.	.	.	.	.	.	.	.	.	.	.	.
4G#\)	(<8cc#L 8b 8f#/	.	.	.	.	.	.	.	.	.	.	.	.	.	.	.	.	4G#\)	nie	le	.
.	8cc#J 8b 8e#X/)	.	.	.	.	.	.	.	.	.	.	.	.	.	.	.	.	.	.	.	.
=20	=20	=20	=20	=20	=20	=20	=20	=20	=20	=20	=20	=20	=20	=20	=20	=20	=20	=20	=20	=20	=20
2.A\	8ff#L 8cc# 8f#/	.	1ryy	.	.	.	1ryy	.	.	1ryy	.	.	.	1ryy	.	.	.	2A\	zdo-	por-	.
.	8ff# 8cc# 8f#/	.	.	.	.	.	.	.	.	.	.	.	.	.	.	.	.	.	.	.	.
.	8ff# 8cc# 8f#/	.	.	.	.	.	.	.	.	.	.	.	.	.	.	.	.	.	.	.	.
.	8ff#J 8cc# 8f#/	.	.	.	.	.	.	.	.	.	.	.	.	.	.	.	.	.	.	.	.
!	!	!LO:HP:b	!	!	!	!	!	!	!	!	!	!	!	!	!	!	!	!	!	!	!
.	8eeL 8ccn 8a\	>	.	.	.	.	.	.	.	.	.	.	.	.	.	.	.	8A\	-ła.	-te.	.
.	8ee 8cc 8a\	.	.	.	.	.	.	.	.	.	.	.	.	.	.	.	.	8r	.	.	.
!	!	!	!	!	!	!	!	!	!	!	!	!	!	!	!	!	!	!	!	!	!LO:DY:a:t=p.:rj
(>8A\L	8ee 8cc 8a\	.	.	.	.	.	.	.	.	.	.	.	.	.	.	.	.	8A\L	Je-	Se	p
8B\J	8eeJ 8cc 8a\	]	.	.	.	.	.	.	.	.	.	.	.	.	.	.	.	8B\J	.	.	.
!!LO:LB:g=original
=21	=21	=21	=21	=21	=21	=21	=21	=21	=21	=21	=21	=21	=21	=21	=21	=21	=21	=21	=21	=21	=21
!	!LO:TX:a:t=P:problem=4 kropki pod nutą	!	!	!	!	!	!	!	!	!	!	!	!	!	!	!	!	!LO:TX:i:a:t=dolce	!	!	!LO:DY:a:t=p.:rj
2cn\)	8ee'<L 8ccn 8gn 8e/	pp	1ryy	.	.	.	1ryy	.	.	1ryy	.	.	.	1ryy	.	.	.	4.cn\	-że-	pe-	p
.	8ee'< 8cc 8g 8e/	.	.	.	.	.	.	.	.	.	.	.	.	.	.	.	.	.	.	.	.
.	8ee'< 8cc 8g 8e/	.	.	.	.	.	.	.	.	.	.	.	.	.	.	.	.	.	.	.	.
.	8ee'<J 8cc 8g 8e/	.	.	.	.	.	.	.	.	.	.	.	.	.	.	.	.	8c\	-li	-ne	.
!	!LO:TX:a:t=P:problem=2 kropki pod nutą	!	!	!	!	!	!	!	!	!	!	!	!	!	!	!	!	!	!	!	!
2Cn/	8ee'<L 8cc 8a 8e/	.	.	.	.	.	.	.	.	.	.	.	.	.	.	.	.	4c\	ka-	tan-	.
.	8ee'<J 8cc 8a 8e/	.	.	.	.	.	.	.	.	.	.	.	.	.	.	.	.	.	.	.	.
!	!LO:TX:a:t=P:problem=2 kropki pod nutą	!	!	!	!	!	!	!	!	!	!	!	!	!	!	!	!	!	!	!	!
.	8ee'<L 8cc 8g 8e/	.	.	.	.	.	.	.	.	.	.	.	.	.	.	.	.	8Cn/	-rę	-to	.
.	8ee'<J 8cc 8g 8e/	.	.	.	.	.	.	.	.	.	.	.	.	.	.	.	.	8C/	tak	se-	.
*	*Xtremolo	*	*	*	*	*	*	*	*	*	*	*	*	*	*	*	*	*	*	*	*
=22	=22	=22	=22	=22	=22	=22	=22	=22	=22	=22	=22	=22	=22	=22	=22	=22	=22	=22	=22	=22	=22
!	!LO:S:s=2:note:problem=note-level slur	!	!	!	!	!	!	!	!	!	!	!	!	!	!	!	!	!	!	!	!
2.BB 2.BBB^>/	(<8eeL 8ccn 8a 8f#X/	.	1ryy	.	.	.	1ryy	.	.	1ryy	.	.	.	1ryy	.	.	.	2BB/	sro-	-ve-	.
!	!LO:S:s=2:note:problem=note-level slur	!	!	!	!	!	!	!	!	!	!	!	!	!	!	!	!	!	!	!	!
.	8dd#X 8b 8a 8f#/)	.	.	.	.	.	.	.	.	.	.	.	.	.	.	.	.	.	.	.	.
.	8dd# 8b 8a 8f#/	.	.	.	.	.	.	.	.	.	.	.	.	.	.	.	.	.	.	.	.
.	8dd#J 8b 8a 8f#/	.	.	.	.	.	.	.	.	.	.	.	.	.	.	.	.	.	.	.	.
.	8dd#XL 8b 8f#/	.	.	.	.	.	.	.	.	.	.	.	.	.	.	.	.	8BB/	-gą,	-re	.
.	8ddn 8b 8f#/	.	.	.	.	.	.	.	.	.	.	.	.	.	.	.	.	8r	.	.	.
(>8B\L	8dd 8b 8f#/	.	.	.	.	.	.	.	.	.	.	.	.	.	.	.	.	8B\	lu-	di-	.
8c#\J)	8eeJ 8b 8f#/	.	.	.	.	.	.	.	.	.	.	.	.	.	.	.	.	8c#\	-dzie	-le-	.
=23	=23	=23	=23	=23	=23	=23	=23	=23	=23	=23	=23	=23	=23	=23	=23	=23	=23	=23	=23	=23	=23
*	*tremolo	*	*	*	*	*	*	*	*	*	*	*	*	*	*	*	*	*	*	*	*
!	!LO:TX:a:t=P:problem=4 kropki pod nutą	!	!	!	!	!	!	!	!	!	!	!	!	!	!	!	!	!LO:TX:t=P:problem=nieczytelny tekst w języku włoskim	!	!	!
2d^<\	8ff#'<L 8dd 8a 8f#/	.	1ryy	.	.	.	1ryy	.	.	1ryy	.	.	.	1ryy	.	.	.	4.d\	nie-	-nire	.
.	8ff#'< 8dd 8a 8f#/	.	.	.	.	.	.	.	.	.	.	.	.	.	.	.	.	.	.	.	.
.	8ff#'< 8dd 8a 8f#/	.	.	.	.	.	.	.	.	.	.	.	.	.	.	.	.	.	.	.	.
.	8ff#'<J 8dd 8a 8f#/	.	.	.	.	.	.	.	.	.	.	.	.	.	.	.	.	8d\	-co	ab-	.
!	!LO:TX:a:t=P:problem=2 kropki pod nutą	!	!	!	!	!	!	!	!	!	!	!	!	!	!	!	!	!	!	!	!
2D\	8ff#'<L 8b 8f#/	.	.	.	.	.	.	.	.	.	.	.	.	.	.	.	.	(>4.d\	zwol-	-biam	.
.	8ff#J'< 8b 8f#/	.	.	.	.	.	.	.	.	.	.	.	.	.	.	.	.	.	.	.	.
!	!LO:TX:a:t=P:problem=2 kropki pod nutą	!	!	!	!	!	!	!	!	!	!	!	!	!	!	!	!	!	!	!	!
.	8ff#'<L 8a 8f#/	.	.	.	.	.	.	.	.	.	.	.	.	.	.	.	.	.	.	.	.
.	8ff#'<J 8a 8f#/	.	.	.	.	.	.	.	.	.	.	.	.	.	.	.	.	8D\)	-nić	po-	.
!!LO:LB:g=original
=24	=24	=24	=24	=24	=24	=24	=24	=24	=24	=24	=24	=24	=24	=24	=24	=24	=24	=24	=24	=24	=24
2.C# 2.CC#/	(>8ff#L 8b 8gn/	.	1ryy	.	.	.	1ryy	.	.	1ryy	.	.	.	1ryy	.	.	.	2C#/	mo-	-te-	.
.	8eeJ 8b 8g/)	.	.	.	.	.	.	.	.	.	.	.	.	.	.	.	.	.	.	.	.
!	!LO:TX:a:t=P:problem=2 kropki pod nutą	!	!	!	!	!	!	!	!	!	!	!	!	!	!	!	!	!	!	!	!
.	8ee'<L 8b 8g/	.	.	.	.	.	.	.	.	.	.	.	.	.	.	.	.	.	.	.	.
.	8ee'<J 8b 8g/	.	.	.	.	.	.	.	.	.	.	.	.	.	.	.	.	.	.	.	.
!	!LO:S:s=2:note:problem=note-level slur	!	!	!	!	!	!	!	!	!	!	!	!	!	!	!	!	!	!	!	!
.	(>8eeL 8b-X 8g/	.	.	.	.	.	.	.	.	.	.	.	.	.	.	.	.	8C#/	-gą	-re,	.
!	!LO:S:s=2:note:problem=note-level slur	!	!	!	!	!	!	!	!	!	!	!	!	!	!	!	!	!	!	!	!
.	8eeJ 8a 8g/)	.	.	.	.	.	.	.	.	.	.	.	.	.	.	.	.	8r	.	.	.
!	!LO:TX:a:t=P:problem=2 kropki pod nutą	!	!	!	!	!	!	!	!	!	!	!	!	!	!	!	!	!	!	!	!
4A\	8ee'<L 8a 8g/	.	.	.	.	.	.	.	.	.	.	.	.	.	.	.	.	4A\	i	e al	.
.	8ee'<J 8a 8g/	.	.	.	.	.	.	.	.	.	.	.	.	.	.	.	.	.	.	.	.
*kcancel	*kcancel	*	*kcancel	*	*	*	*kcancel	*	*	*kcancel	*	*	*	*kcancel	*	*	*	*kcancel	*	*	*
=25||	=25||	=25||	=25||	=25||	=25||	=25||	=25||	=25||	=25||	=25||	=25||	=25||	=25||	=25||	=25||	=25||	=25||	=25||	=25||	=25||	=25||
*k[f#c#]	*k[f#c#]	*	*k[f#c#]	*	*	*	*k[f#c#]	*	*	*k[f#c#]	*	*	*	*k[f#c#]	*	*	*	*k[f#c#]	*	*	*
*^	*^	*	*	*	*	*	*	*	*	*	*	*	*	*	*	*	*	*	*	*	*
(>2A/	1D	(<8ee/L	8aL 8f#\	.	1ryy	.	.	.	1ryy	.	.	1ryy	.	.	.	1ryy	.	.	.	4A\	zba-	fuo-	.
.	.	8dd/)	8a 8f#\	.	.	.	.	.	.	.	.	.	.	.	.	.	.	.	.	.	.	.	.
.	.	8dd'</	8a 8f#\	.	.	.	.	.	.	.	.	.	.	.	.	.	.	.	.	8D\	-wić	-co	.
.	.	8dd'</J	8aJ 8f#\	.	.	.	.	.	.	.	.	.	.	.	.	.	.	.	.	8D\	pie-	ra-	.
2A#X/	.	(<8dd/L	8gL 8e\	.	.	.	.	.	.	.	.	.	.	.	.	.	.	.	.	4.A#X\	-kiel-	-pir-	.
.	.	8cc#/)	8g 8e\	.	.	.	.	.	.	.	.	.	.	.	.	.	.	.	.	.	.	.	.
.	.	8cc#'</	8g 8e\	.	.	.	.	.	.	.	.	.	.	.	.	.	.	.	.	.	.	.	.
.	.	8cc#'</J	8gJ 8e\	.	.	.	.	.	.	.	.	.	.	.	.	.	.	.	.	8D\	-nej	-da-	.
=26	=26	=26	=26	=26	=26	=26	=26	=26	=26	=26	=26	=26	=26	=26	=26	=26	=26	=26	=26	=26	=26	=26	=26
1B)	2GG\	(<8cc#/L	8gL 8d\	.	1ryy	.	.	.	1ryy	.	.	1ryy	.	.	.	1ryy	.	.	.	2B\	ja-	-ver-	.
.	.	8b/)	8g 8d\	.	.	.	.	.	.	.	.	.	.	.	.	.	.	.	.	.	.	.	.
!	!	!	!	!LO:HP:b	!	!	!	!	!	!	!	!	!	!	!	!	!	!	!	!	!	!	!
.	.	8b'</	8g 8d\	<	.	.	.	.	.	.	.	.	.	.	.	.	.	.	.	.	.	.	.
.	.	8b'</J	8gJ 8d\	.	.	.	.	.	.	.	.	.	.	.	.	.	.	.	.	.	.	.	.
.	(>4.G\	8bL 8g/	2ryy	.	.	.	.	.	.	.	.	.	.	.	.	.	.	.	.	4B\	-my,	-no	.
.	.	8b 8g/	.	.	.	.	.	.	.	.	.	.	.	.	.	.	.	.	.	.	.	.	.
.	.	8ee 8g/	.	.	.	.	.	.	.	.	.	.	.	.	.	.	.	.	.	8c#\	któ-	l'a-	.
.	8F#\	8ff#J 8b 8a/	.	[	.	.	.	.	.	.	.	.	.	.	.	.	.	.	.	8d\	-rej	-tro	.
!!LO:LB:g=original
=27	=27	=27	=27	=27	=27	=27	=27	=27	=27	=27	=27	=27	=27	=27	=27	=27	=27	=27	=27	=27	=27	=27	=27
!	!	!	!	!LO:DY:b:rj	!	!	!	!	!	!	!	!	!	!	!	!	!	!	!	!LO:TX:t=P:problem=niewyraźny zapis w języku włoskim	!	!	!
!	!	!	!	!LO:HP:b	!	!	!	!	!	!	!	!	!	!	!	!	!	!	!	!	!	!	!
2B/	1E)	(<8ggL 8ee/	8g\L	sf >	1ryy	.	.	.	1ryy	.	.	1ryy	.	.	.	1ryy	.	.	.	4.e\	tak	stoi-	.
.	.	8ff# 8dd/)	8g\	.	.	.	.	.	.	.	.	.	.	.	.	.	.	.	.	.	.	.	.
.	.	8ff# 8dd'</	8g\	.	.	.	.	.	.	.	.	.	.	.	.	.	.	.	.	.	.	.	.
.	.	8ff#J 8dd'</	8g\J	]	.	.	.	.	.	.	.	.	.	.	.	.	.	.	.	8B\	jes-	-to an-	.
2B-X/	.	(>8ff#L 8dd/	8g\L	.	.	.	.	.	.	.	.	.	.	.	.	.	.	.	.	4.e\	-teś-	-cor	.
.	.	8ee 8dd/)	8g\	.	.	.	.	.	.	.	.	.	.	.	.	.	.	.	.	.	.	.	.
.	.	8ee 8dd/	8g\	.	.	.	.	.	.	.	.	.	.	.	.	.	.	.	.	.	.	.	.
.	.	8eeJ 8dd/	8g\J	.	.	.	.	.	.	.	.	.	.	.	.	.	.	.	.	8d\	-cie	pos-	.
*	*	*	*Xtremolo	*	*	*	*	*	*	*	*	*	*	*	*	*	*	*	*	*	*	*	*
*v	*v	*	*	*	*	*	*	*	*	*	*	*	*	*	*	*	*	*	*	*	*	*	*
=28	=28	=28	=28	=28	=28	=28	=28	=28	=28	=28	=28	=28	=28	=28	=28	=28	=28	=28	=28	=28	=28	=28
*	*tremolo	*Xtremolo	*	*	*	*	*	*	*	*	*	*	*	*	*	*	*	*	*	*	*	*
1A	8eeL 8dd/	(>8g\L	.	1ryy	.	.	.	1ryy	.	.	1ryy	.	.	.	1ryy	.	.	.	2d\	bli-	-sia-	.
.	8ee 8dd/	8e\)	.	.	.	.	.	.	.	.	.	.	.	.	.	.	.	.	.	.	.	.
.	8ee 8dd/	8a'>\	.	.	.	.	.	.	.	.	.	.	.	.	.	.	.	.	.	.	.	.
.	8eeJ 8dd/	8a'>\J	.	.	.	.	.	.	.	.	.	.	.	.	.	.	.	.	.	.	.	.
.	8eeL 8cc#/	8a\L	.	.	.	.	.	.	.	.	.	.	.	.	.	.	.	.	8c#\	-sko;	-mar,	.
.	8ee 8cc#/	8a\	.	.	.	.	.	.	.	.	.	.	.	.	.	.	.	.	8r	.	.	.
.	8ee 8cc#/	8g#X\	.	.	.	.	.	.	.	.	.	.	.	.	.	.	.	.	8c#\	was	ac-	.
!	!LO:TX:B:b:t=V&colon; S&colon;	!	!	!	!	!	!	!	!	!	!	!	!	!	!	!	!	!	!LO:TX:B:a:t=V&colon; S&colon;	!	!	!
.	8eeJ 8cc#/	8g#\J	.	.	.	.	.	.	.	.	.	.	.	.	.	.	.	.	8c#\	wzy-	-cor-	.
!!LO:PB:g=original
=29	=29	=29	=29	=29	=29	=29	=29	=29	=29	=29	=29	=29	=29	=29	=29	=29	=29	=29	=29	=29	=29	=29
*	*tremolo	*	*	*	*	*	*	*	*	*	*	*	*	*	*	*	*	*	*	*	*	*
(>2A#X^>\	8eeL 8cc#/	(>8gn\L	.	1r	.	.	.	1r	.	.	1r	.	.	.	1r	.	.	.	2e\	-wa-	-ne-	.
.	8ee 8cc#/	8f#\)	.	.	.	.	.	.	.	.	.	.	.	.	.	.	.	.	.	.	.	.
.	8ee 8cc#/	8f#'>\	.	.	.	.	.	.	.	.	.	.	.	.	.	.	.	.	.	.	.	.
.	8eeJ 8cc#/	8f#'>\J	.	.	.	.	.	.	.	.	.	.	.	.	.	.	.	.	.	.	.	.
!	!LO:S:s=2:note:problem=note-level slur	!	!	!	!	!	!	!	!	!	!	!	!	!	!	!	!	!	!	!	!	!
4B\)	(<8ddL 8cc# 8f#/	2ryy	.	.	.	.	.	.	.	.	.	.	.	.	.	.	.	.	8d\	-my,	-te,	.
!	!LO:S:s=2:note:problem=note-level slur	!	!	!	!	!	!	!	!	!	!	!	!	!	!	!	!	!	!	!	!	!
.	8dd 8b 8f#/)	.	.	.	.	.	.	.	.	.	.	.	.	.	.	.	.	.	8r	.	.	.
4F#\	(>8dd 8a (<8f#/	.	.	.	.	.	.	.	.	.	.	.	.	.	.	.	.	.	8A\	za-	qui all'	.
.	8cc#J) 8a 8e/)	.	.	.	.	.	.	.	.	.	.	.	.	.	.	.	.	.	8A\	-kli-	in-	.
=30	=30	=30	=30	=30	=30	=30	=30	=30	=30	=30	=30	=30	=30	=30	=30	=30	=30	=30	=30	=30	=30	=30
(>2An^>\	(8ccnL 8f#/	(<8e\L	.	1r	.	.	.	1r	.	.	1r	.	.	.	1r	.	.	.	2cn\	-na-	-tor-	.
.	8cc 8f#/)	8d#X\)	.	.	.	.	.	.	.	.	.	.	.	.	.	.	.	.	.	.	.	.
.	8cc 8f#/	8d#'>\	.	.	.	.	.	.	.	.	.	.	.	.	.	.	.	.	.	.	.	.
.	8ccJ 8f#/	8d#'>\J	.	.	.	.	.	.	.	.	.	.	.	.	.	.	.	.	.	.	.	.
!	!LO:TX:a:t=P:problem=2 kropki pod nutą	!	!	!	!	!	!	!	!	!	!	!	!	!	!	!	!	!	!	!	!	!
4G\)	8b'<L 8e/	2ryy	.	.	.	.	.	.	.	.	.	.	.	.	.	.	.	.	8B\	-my	-no,	.
.	8b'<J 8e/	.	.	.	.	.	.	.	.	.	.	.	.	.	.	.	.	.	8r	.	.	.
!	!LO:TX:a:t=P:problem=2 kropki pod nutą	!	!	!	!	!	!	!	!	!	!	!	!	!	!	!	!	!	!	!	!	!
4D#X\	8a'<L 8f# 8B/	.	.	.	.	.	.	.	.	.	.	.	.	.	.	.	.	.	4F#\	przez	mo-	.
.	8a'<J 8f# 8B/	.	.	.	.	.	.	.	.	.	.	.	.	.	.	.	.	.	.	.	.	.
*	*v	*v	*	*	*	*	*	*	*	*	*	*	*	*	*	*	*	*	*	*	*	*
=31	=31	=31	=31	=31	=31	=31	=31	=31	=31	=31	=31	=31	=31	=31	=31	=31	=31	=31	=31	=31	=31
!	!LO:TX:a:t=P:problem=2 kropki pod nutą	!LO:DY:b:t=p.:rj	!	!	!	!	!	!	!	!	!	!	!	!	!	!	!	!	!	!	!
2E\	(<8a'<L 8f# 8B/	p	1r	.	.	.	1r	.	.	1r	.	.	.	1r	.	.	.	4A\	ży-	-stra-	.
.	8a'<J 8f# 8B/	.	.	.	.	.	.	.	.	.	.	.	.	.	.	.	.	.	.	.	.
!	!LO:TX:a:t=P:problem=2 kropki pod nutą	!	!	!	!	!	!	!	!	!	!	!	!	!	!	!	!	!	!	!	!
.	8g'<L 8e 8B/	.	.	.	.	.	.	.	.	.	.	.	.	.	.	.	.	8G\	-wioł	-te	.
.	8g'<J 8e 8B/	.	.	.	.	.	.	.	.	.	.	.	.	.	.	.	.	8G\	wasz	vial	.
!	!LO:TX:a:t=P:problem=2 kropki pod nutą	!	!	!	!	!	!	!	!	!	!	!	!	!	!	!	!	!	!	!	!
2AA\	8e'<L 8c# 8A</	.	.	.	.	.	.	.	.	.	.	.	.	.	.	.	.	4E\	przez	mio	.
.	8e'<J 8c# 8A</	.	.	.	.	.	.	.	.	.	.	.	.	.	.	.	.	.	.	.	.
!	!LO:TX:a:t=P:problem=2 kropki pod nutą	!	!	!	!	!	!	!	!	!	!	!	!	!	!	!	!	!	!	!	!
.	8c#<'<L 8A< 8G</)	.	.	.	.	.	.	.	.	.	.	.	.	.	.	.	.	4C#\	og-	ri-	.
.	8c#<'<J 8A< 8G</	.	.	.	.	.	.	.	.	.	.	.	.	.	.	.	.	.	.	.	.
!!LO:LB:g=original
=32	=32	=32	=32	=32	=32	=32	=32	=32	=32	=32	=32	=32	=32	=32	=32	=32	=32	=32	=32	=32	=32
2D 2DD\	8dL 8A< 8F#</	.	2r	.	.	.	2r	.	.	2r	.	.	.	2r	.	.	.	2D/	-ni-	-chia-	.
.	8d 8A< 8F#</	.	.	.	.	.	.	.	.	.	.	.	.	.	.	.	.	.	.	.	.
.	8d 8A< 8F#</	.	.	.	.	.	.	.	.	.	.	.	.	.	.	.	.	.	.	.	.
.	8dJ 8A< 8F#</	.	.	.	.	.	.	.	.	.	.	.	.	.	.	.	.	.	.	.	.
!	!	!LO:HP:b	!	!	!	!	!	!	!	!	!	!	!	!	!	!	!	!	!	!	!
2GG\	8dL 8B< 8G</	<	4r	.	.	.	4r	.	.	4r	.	.	.	4r	.	.	.	4GG/	-sko!	-mo!	.
.	8d 8B< 8G</	.	.	.	.	.	.	.	.	.	.	.	.	.	.	.	.	.	.	.	.
*	*	*	*	*	*	*	*	*	*	*	*	*	*	*	*	*color:red	*	*	*	*	*
!	!	!	!LO:ART:color=grey	!	!	!LO:DY:a:t=mf.:rj	!	!	!LO:DY:a:t=mf.:rj	!	!	!	!LO:DY:a:t=mf.:rj	!LO:TX:B:i:a:t=Chór	!	!	!LO:DY:a:t=mf.:rj	!	!	!	!
.	8d 8B< 8G</	.	8G'>\	Mó-	.	mf	8B\	Mó-	mf	8d/	Mó-	.	mf	8b\	Mó-	Che	mf	4r	.	.	.
!	!	!	!LO:ART:color=grey	!	!	!	!	!	!	!	!	!	!	!	!	!	!	!	!	!	!
.	8dJ 8B< 8G</	[	8G'>\	-wcie	.	.	8B\	-wcie	.	8d/	-wcie	.	.	8b\	-wcie	vi	.	.	.	.	.
=33	=33	=33	=33	=33	=33	=33	=33	=33	=33	=33	=33	=33	=33	=33	=33	=33	=33	=33	=33	=33	=33
*	*	*	*2\right	*ij	*	*	*2\right	*ij	*	*2\right	*ij	*	*	*2\right	*	*	*	*	*	*	*
!	!	!LO:HP:b	!	!	!	!	!	!	!	!	!	!	!	!	!	!	!	!	!	!	!
(>2G#X 2GG#X\	8fnL 8d 8B</	>	2G#X^>\	ko-	.	.	2B^>\	ko-	.	2fn^>/	ko-	.	.	2dd^>\	ko-	man-	.	1r	.	.	.
.	8f 8d 8B</	.	.	.	.	.	.	.	.	.	.	.	.	.	.	.	.	.	.	.	.
.	8f 8d 8B</	.	.	.	.	.	.	.	.	.	.	.	.	.	.	.	.	.	.	.	.
.	8fJ 8d 8B</	]	.	.	.	.	.	.	.	.	.	.	.	.	.	.	.	.	.	.	.
!	!	!LO:HP:b	!	!	!	!	!	!	!	!	!	!	!	!	!	!	!	!	!	!	!
2A 2AA\)	8eL 8c#/	<	4A\	-mu	.	.	4c#\	-mu	.	4e/	-mu	.	.	4cc#\	-mu	-ca?	.	.	.	.	.
.	8e 8c#/	.	.	.	.	.	.	.	.	.	.	.	.	.	.	.	.	.	.	.	.
!	!	!	!	!	!	!LO:HP:a	!	!	!LO:HP:a	!	!	!	!LO:HP:a	!	!	!	!LO:HP:a	!	!	!	!
.	8e 8c#/	.	8A\	cze-	.	<	8c#\	cze-	<	8cc#\	cze-	.	<	8ee\	cze-	che	<	.	.	.	.
.	8eJ 8c#/	[	8A\	-go	.	[	8e\	-go	[	8cc#\	-go	.	[	8ee\	-go	v'af-	[	.	.	.	.
=34	=34	=34	=34	=34	=34	=34	=34	=34	=34	=34	=34	=34	=34	=34	=34	=34	=34	=34	=34	=34	=34
!	!	!LO:HP:b	!	!	!	!LO:HP:a	!	!	!LO:HP:a	!	!	!	!LO:HP:a	!	!	!	!LO:HP:a	!	!	!	!
(2A#X 2AA#X\	8cc#L 8g 8e/	>	2A#X\	brak-	.	>	2e\	brak-	>	2cc#\	brak-	.	>	2gg\	brak-	-fran-	>	1r	.	.	.
.	8cc# 8g 8e/	.	.	.	.	.	.	.	.	.	.	.	.	.	.	.	.	.	.	.	.
.	8cc# 8g 8e/	.	.	.	.	.	.	.	.	.	.	.	.	.	.	.	.	.	.	.	.
.	8cc#J 8g 8e/	]	.	.	.	.	.	.	.	.	.	.	.	.	.	.	.	.	.	.	.
!	!LO:TX:a:t=P:problem=2 kropki pod nutą	!	!	!	!	!	!	!	!	!	!	!	!	!	!	!	!	!	!	!	!
4B 4BB\)	8dd'<L 8f# 8d/	.	8B\	-nie,	.	]	8d\	-nie,	]	8dd\	-nie,	.	]	8ff#\	-nie,	-ge?	]	.	.	.	.
.	8dd'<J 8f# 8d/	.	8r	.	.	.	8r	.	.	8r	.	.	.	8r	.	.	.	.	.	.	.
!	!	!	!	!	!	!	!	!	!	!	!	!	!	!LO:TX:Bi:a:t=dolce	!	!	!	!	!	!	!
!	!LO:TX:a:t=P:problem=2 kropki pod nutą	!	!LO:TX:Bi:a:t=dolce	!	!	!LO:DY:a:t=p.:rj	!LO:TX:Bi:a:t=dolce	!	!LO:DY:a:t=p.:rj	!LO:TX:Bi:a:t=dolce	!	!	!LO:DY:a:t=p.:rj	!	!	!	!LO:DY:a:t=p.:rj	!	!	!	!
4F# 4FF#\	8a'<L 8d/	.	8F#\	kto	.	p	8d\	kto	p	8a/	kto	.	p	8dd\	kto	Di-	p	.	.	.	.
.	8a'<J 8d/	.	8F#\	z was	.	.	8d\	z was	.	8a/	z was	.	.	8cc#\	z was	-te a	.	.	.	.	.
!!LO:PB:g=original
=35	=35	=35	=35	=35	=35	=35	=35	=35	=35	=35	=35	=35	=35	=35	=35	=35	=35	=35	=35	=35	=35
*^	*	*	*	*	*	*	*	*	*	*	*	*	*	*	*	*	*	*	*	*	*
*	*	*	*	*	*	*	*	*	*	*	*	*	*color:red	*	*	*	*	*	*	*	*	*
!	!	!LO:TX:a:t=P:problem=2 kropki pod nutą	!LO:DY:b:t=p.:rj	!	!	!	!	!	!	!	!	!	!	!	!LO:TX:Bi:a:t=Chór.:rj	!	!	!	!	!	!	!
2G 2GG\	2ryy	8cc#'<L 8a 8d/	p	4G\	pra-	.	.	4d\	pra-	.	4a/	pra-	noi	.	4cc#\	pra-	.	.	1ryy	.	.	.
.	.	8cc#'<J 8a 8d/	.	.	.	.	.	.	.	.	.	.	.	.	.	.	.	.	.	.	.	.
!	!	!LO:TX:a:t=P:problem=2 kropki pod nutą	!	!	!	!	!	!	!	!	!	!	!	!	!	!	!	!	!	!	!	!
.	.	8b'<L 8g 8d/	.	4G 4GG/	-gnie,	.	.	4d\	-gnie,	.	4g/	-gnie,	qual	.	4b\	-gnie,	.	.	.	.	.	.
.	.	8b'<J 8g 8d/	.	.	.	.	.	.	.	.	.	.	.	.	.	.	.	.	.	.	.	.
!	!	!LO:TX:a:t=P:problem=2 kropki pod nutą	!	!	!	!	!	!	!	!	!	!	!	!	!	!	!	!	!	!	!	!
4E/	2AA\	8g'<L 8e 8c#/	.	4G 4AA/	kto	.	.	4c#\	kto	.	4e/	kto	pe-	.	4g/	kto	.	.	.	.	.	.
.	.	8g'<J 8e 8c#/	.	.	.	.	.	.	.	.	.	.	.	.	.	.	.	.	.	.	.	.
!	!	!LO:TX:a:t=P:problem=2 kropki pod nutą	!	!	!	!	!	!	!	!	!	!	!	!	!	!	!	!	!	!	!	!
4A/	.	8e'<L 8c# 8G/	.	4G 4AA/	z was	.	.	4c#\	z was	.	4e/	z was	-na	.	4e/	z was	.	.	.	.	.	.
.	.	8e'<J 8c# 8G/	.	.	.	.	.	.	.	.	.	.	.	.	.	.	.	.	.	.	.	.
*	*	*	*	*	*Xij	*	*	*	*Xij	*	*	*Xij	*	*	*	*	*	*	*	*	*	*
*v	*v	*	*	*	*	*	*	*	*	*	*	*	*	*	*	*	*	*	*	*	*	*
=36	=36	=36	=36	=36	=36	=36	=36	=36	=36	=36	=36	=36	=36	=36	=36	=36	=36	=36	=36	=36	=36
*	*	*	*^	*	*	*	*	*	*	*	*	*	*	*	*	*	*	*	*	*	*
!	!LO:TX:a:t=P:problem=mixed beam	!LO:DY:b:t=pp.:color=black	!	!	!	!	!	!	!	!	!	!	!	!	!	!	!	!	!	!	!	!
4rFF	16A<LL 16F#</	pp	2F#/	2D\	ła-	.	.	2d\	ła-	.	2d/	ła-	v'an-	.	2d/	ła-	.	.	1ryy	.	.	.
.	16d\	.	.	.	.	.	.	.	.	.	.	.	.	.	.	.	.	.	.	.	.	.
.	16A 16F#/	.	.	.	.	.	.	.	.	.	.	.	.	.	.	.	.	.	.	.	.	.
.	16d\	.	.	.	.	.	.	.	.	.	.	.	.	.	.	.	.	.	.	.	.	.
(>8.DL 8.DD\	16A 16F#/	.	.	.	.	.	.	.	.	.	.	.	.	.	.	.	.	.	.	.	.	.
.	16d\	.	.	.	.	.	.	.	.	.	.	.	.	.	.	.	.	.	.	.	.	.
.	16A 16F#/	.	.	.	.	.	.	.	.	.	.	.	.	.	.	.	.	.	.	.	.	.
!	!	!LO:HP:a	!	!	!	!	!	!	!	!	!	!	!	!	!	!	!	!	!	!	!	!
16EJk 16EE\	16d\JJ	<	.	.	.	.	.	.	.	.	.	.	.	.	.	.	.	.	.	.	.	.
!	!LO:TX:a:t=P:problem=mixed beam	!	!	!	!	!	!	!	!	!	!	!	!	!	!	!	!	!	!	!	!	!
8F# 8FF#\)	16A<LL 16F#</	.	8D/	8D\	-knie?	.	.	8D/	-knie?	.	8d/	-knie?	-ge?	.	8d/	-knie?	.	.	.	.	.	.
.	16d\	.	.	.	.	.	.	.	.	.	.	.	.	.	.	.	.	.	.	.	.	.
8r	16A 16F#/	.	8r	8ryy	.	.	.	8r	.	.	8r	.	.	.	8r	.	.	.	.	.	.	.
.	16d\	.	.	.	.	.	.	.	.	.	.	.	.	.	.	.	.	.	.	.	.	.
*	*	*	*	*	*	*	*	*	*	*	*	*	*	*	*	*	*color:red	*	*	*	*	*
!	!	!	!	!	!	!	!	!	!	!LO:DY:a:t=pp.:color=black	!	!	!	!	!	!	!	!LO:DY:a	!	!	!	!
8D 8DD\	16A 16F#/	.	4r	4ryy	.	.	.	8D/	Cie-	pp	4r	.	.	.	8d/	Cie-	che	pp	.	.	.	.
.	16d/	.	.	.	.	.	.	.	.	.	.	.	.	.	.	.	.	.	.	.	.	.
8r	16A 16F#/	.	.	.	.	.	.	8D/	-mno	.	.	.	.	.	8d/	-mno	vi	.	.	.	.	.
.	16d\JJ	[	.	.	.	.	.	.	.	.	.	.	.	.	.	.	.	.	.	.	.	.
*	*	*	*v	*v	*	*	*	*	*	*	*	*	*	*	*	*	*	*	*	*	*	*
=37	=37	=37	=37	=37	=37	=37	=37	=37	=37	=37	=37	=37	=37	=37	=37	=37	=37	=37	=37	=37	=37
!	!LO:TX:a:t=P:problem=mixed beam	!LO:HP:a	!	!	!	!	!	!	!	!	!	!	!	!	!	!	!	!	!	!	!
(>2GG (<2GGG/	16B-X<LL 16G</	>	1r	.	.	.	1C#	wszę-	.	1r	.	.	.	1c#	wszę-	man-	.	1ryy	.	.	.
.	16e-X\	.	.	.	.	.	.	.	.	.	.	.	.	.	.	.	.	.	.	.	.
.	16B- 16G/	.	.	.	.	.	.	.	.	.	.	.	.	.	.	.	.	.	.	.	.
.	16e-\	.	.	.	.	.	.	.	.	.	.	.	.	.	.	.	.	.	.	.	.
.	16B- 16G/	.	.	.	.	.	.	.	.	.	.	.	.	.	.	.	.	.	.	.	.
.	16e-\	.	.	.	.	.	.	.	.	.	.	.	.	.	.	.	.	.	.	.	.
.	16B- 16G/	.	.	.	.	.	.	.	.	.	.	.	.	.	.	.	.	.	.	.	.
.	16e-X\JJ	.	.	.	.	.	.	.	.	.	.	.	.	.	.	.	.	.	.	.	.
!	!LO:TX:a:t=P:problem=mixed beam	!	!	!	!	!	!	!	!	!	!	!	!	!	!	!	!	!	!	!	!
2AA 2AAA/))	16A<LL 16G</	]	.	.	.	.	.	.	.	.	.	.	.	.	.	.	.	.	.	.	.
.	16c#X\	.	.	.	.	.	.	.	.	.	.	.	.	.	.	.	.	.	.	.	.
.	16A 16G/	.	.	.	.	.	.	.	.	.	.	.	.	.	.	.	.	.	.	.	.
.	16c#\	.	.	.	.	.	.	.	.	.	.	.	.	.	.	.	.	.	.	.	.
.	16A 16G/	.	.	.	.	.	.	.	.	.	.	.	.	.	.	.	.	.	.	.	.
.	16c#X\	.	.	.	.	.	.	.	.	.	.	.	.	.	.	.	.	.	.	.	.
.	16A 16G/	.	.	.	.	.	.	.	.	.	.	.	.	.	.	.	.	.	.	.	.
.	16c#X\JJ	.	.	.	.	.	.	.	.	.	.	.	.	.	.	.	.	.	.	.	.
=38	=38	=38	=38	=38	=38	=38	=38	=38	=38	=38	=38	=38	=38	=38	=38	=38	=38	=38	=38	=38	=38
!	!LO:TX:a:t=P:problem=mixed beam	!	!	!	!	!	!	!	!	!	!	!	!	!	!	!	!	!	!	!	!
4r	16A<LL 16F#</	.	2r	.	.	.	4D/	-dzie?	.	2r	.	.	.	4d/	-dzie?	-ca?	.	1ryy	.	.	.
.	16d\	.	.	.	.	.	.	.	.	.	.	.	.	.	.	.	.	.	.	.	.
.	16A 16F#/	.	.	.	.	.	.	.	.	.	.	.	.	.	.	.	.	.	.	.	.
.	16d\	.	.	.	.	.	.	.	.	.	.	.	.	.	.	.	.	.	.	.	.
(>8.FF#\L	16A 16F#/	.	.	.	.	.	4r	.	.	.	.	.	.	4r	.	.	.	.	.	.	.
.	16d\	.	.	.	.	.	.	.	.	.	.	.	.	.	.	.	.	.	.	.	.
.	16A 16F#/	.	.	.	.	.	.	.	.	.	.	.	.	.	.	.	.	.	.	.	.
16GG\Jk	16d\JJ	.	.	.	.	.	.	.	.	.	.	.	.	.	.	.	.	.	.	.	.
!	!	!LO:HP:a	!	!	!	!	!	!	!	!	!	!	!	!	!	!	!	!	!	!	!
8AA\)	16dLL 16A/	<	4r	.	.	.	2r	.	.	4r	.	.	.	2r	.	.	.	.	.	.	.
.	16f#/	.	.	.	.	.	.	.	.	.	.	.	.	.	.	.	.	.	.	.	.
8r	16d 16A/	.	.	.	.	.	.	.	.	.	.	.	.	.	.	.	.	.	.	.	.
.	16f#/	.	.	.	.	.	.	.	.	.	.	.	.	.	.	.	.	.	.	.	.
*	*	*	*	*	*color:red	*	*	*	*	*	*	*	*	*	*	*	*	*	*	*	*
*	*	*	*	*	*above	*	*	*	*	*	*	*	*	*	*	*	*	*	*	*	*
!	!	!	!	!	!	!LO:DY:a:t=pp.:color=black	!	!	!	!	!	!	!LO:DY:a:t=pp.:color=black	!	!	!	!	!	!	!	!
8D 8DD\	16d 16A/	.	8AA/	Co	che	pp	.	.	.	8A/	Co	.	pp	.	.	.	.	.	.	.	.
.	16f#/	.	.	.	.	.	.	.	.	.	.	.	.	.	.	.	.	.	.	.	.
8r	16d 16A/	.	8AA/	to	v'af-	.	.	.	.	8A/	to	.	.	.	.	.	.	.	.	.	.
.	16f#/JJ	[	.	.	.	.	.	.	.	.	.	.	.	.	.	.	.	.	.	.	.
=39	=39	=39	=39	=39	=39	=39	=39	=39	=39	=39	=39	=39	=39	=39	=39	=39	=39	=39	=39	=39	=39
!	!	!LO:HP:a	!	!	!	!	!	!	!	!	!	!	!	!	!	!	!	!	!	!	!
(>2Cn (<2CCn^>\	16eLL 16B-X/	>	(<2.BB-X/	bę-	-fran-	.	1r	.	.	(<2.B-X/	bę-	.	.	1r	.	.	.	1ryy	.	.	.
.	16g/	.	.	.	.	.	.	.	.	.	.	.	.	.	.	.	.	.	.	.	.
.	16e 16B-/	.	.	.	.	.	.	.	.	.	.	.	.	.	.	.	.	.	.	.	.
.	16g/	.	.	.	.	.	.	.	.	.	.	.	.	.	.	.	.	.	.	.	.
.	16e 16B-/	.	.	.	.	.	.	.	.	.	.	.	.	.	.	.	.	.	.	.	.
.	16g/	.	.	.	.	.	.	.	.	.	.	.	.	.	.	.	.	.	.	.	.
.	16e 16B-/	.	.	.	.	.	.	.	.	.	.	.	.	.	.	.	.	.	.	.	.
.	16g/	]	.	.	.	.	.	.	.	.	.	.	.	.	.	.	.	.	.	.	.
2C#X 2CC#X\))	16e 16B-/	.	.	.	.	.	.	.	.	.	.	.	.	.	.	.	.	.	.	.	.
.	16g/	.	.	.	.	.	.	.	.	.	.	.	.	.	.	.	.	.	.	.	.
.	16e 16B-/	.	.	.	.	.	.	.	.	.	.	.	.	.	.	.	.	.	.	.	.
.	16g/JJ	.	.	.	.	.	.	.	.	.	.	.	.	.	.	.	.	.	.	.	.
*	*Xtremolo	*	*	*	*	*	*	*	*	*	*	*	*	*	*	*	*	*	*	*	*
.	16eLL 16A/	.	4AA/)	.	.	.	.	.	.	4A/)	.	.	.	.	.	.	.	.	.	.	.
.	16g/	.	.	.	.	.	.	.	.	.	.	.	.	.	.	.	.	.	.	.	.
.	16e 16A/	.	.	.	.	.	.	.	.	.	.	.	.	.	.	.	.	.	.	.	.
.	16g/JJ	.	.	.	.	.	.	.	.	.	.	.	.	.	.	.	.	.	.	.	.
!!LO:LB:g=original
=40	=40	=40	=40	=40	=40	=40	=40	=40	=40	=40	=40	=40	=40	=40	=40	=40	=40	=40	=40	=40	=40
*tremolo	*tremolo	*	*	*	*	*	*	*	*	*	*	*	*	*	*	*	*	*	*	*	*
!LO:TX:a:t=P:problem=mixed beam	!	!LO:HP:a	!	!	!	!	!	!	!	!	!	!	!	!	!	!	!	!	!	!	!
16DD/LL	(>16eLL 16A/	>	2AA/	-dzie?	-ge?	.	1r	.	.	2A/	-dzie?	.	.	1r	.	.	.	1ryy	.	.	.
16D\	16f#/	.	.	.	.	.	.	.	.	.	.	.	.	.	.	.	.	.	.	.	.
16DD/	16e 16A/	.	.	.	.	.	.	.	.	.	.	.	.	.	.	.	.	.	.	.	.
16D\	16f#/	.	.	.	.	.	.	.	.	.	.	.	.	.	.	.	.	.	.	.	.
16DD/	16e 16A/	]	.	.	.	.	.	.	.	.	.	.	.	.	.	.	.	.	.	.	.
16D\	16f#/	.	.	.	.	.	.	.	.	.	.	.	.	.	.	.	.	.	.	.	.
16DD/	16e 16A/	.	.	.	.	.	.	.	.	.	.	.	.	.	.	.	.	.	.	.	.
16D\JJ	16f#/JJ	.	.	.	.	.	.	.	.	.	.	.	.	.	.	.	.	.	.	.	.
!LO:TX:a:t=P:problem=mixed beam	!	!	!	!	!	!	!	!	!	!	!	!	!	!	!	!	!	!	!	!	!
*	*Xtremolo	*	*	*	*	*	*	*	*	*	*	*	*	*	*	*	*	*	*	*	*
16DD/LL	16dLL 16A/	.	2r	.	.	.	.	.	.	2r	.	.	.	.	.	.	.	.	.	.	.
16D\	16f#/	.	.	.	.	.	.	.	.	.	.	.	.	.	.	.	.	.	.	.	.
16DD/	16d 16A/	.	.	.	.	.	.	.	.	.	.	.	.	.	.	.	.	.	.	.	.
16D\	16f#/JJ	.	.	.	.	.	.	.	.	.	.	.	.	.	.	.	.	.	.	.	.
16DD/	16BLL 16A/	.	.	.	.	.	.	.	.	.	.	.	.	.	.	.	.	.	.	.	.
16D\	16f#/	.	.	.	.	.	.	.	.	.	.	.	.	.	.	.	.	.	.	.	.
16DD/	16B 16A/	.	.	.	.	.	.	.	.	.	.	.	.	.	.	.	.	.	.	.	.
16D\JJ	16f#/JJ	.	.	.	.	.	.	.	.	.	.	.	.	.	.	.	.	.	.	.	.
=41	=41	=41	=41	=41	=41	=41	=41	=41	=41	=41	=41	=41	=41	=41	=41	=41	=41	=41	=41	=41	=41
!LO:TX:a:t=P:problem=mixed beam	!LO:TX:a:t=P:problem=mixed beam	!	!	!	!	!	!	!	!	!	!	!	!	!	!	!	!	!	!	!	!
16DD/LL	16A</LL	.	1r	.	.	.	1r	.	.	1r	.	.	.	1r	.	.	.	1ryy	.	.	.
16D\	16f#\	.	.	.	.	.	.	.	.	.	.	.	.	.	.	.	.	.	.	.	.
16DD/	16A</	.	.	.	.	.	.	.	.	.	.	.	.	.	.	.	.	.	.	.	.
16D\	16f#\JJ	.	.	.	.	.	.	.	.	.	.	.	.	.	.	.	.	.	.	.	.
!	!LO:TX:a:t=P:problem=mixed beam	!	!	!	!	!	!	!	!	!	!	!	!	!	!	!	!	!	!	!	!
16DD/	16F#</LL	.	.	.	.	.	.	.	.	.	.	.	.	.	.	.	.	.	.	.	.
16D\	16d\	.	.	.	.	.	.	.	.	.	.	.	.	.	.	.	.	.	.	.	.
16DD/	16F#</	.	.	.	.	.	.	.	.	.	.	.	.	.	.	.	.	.	.	.	.
16D\JJ	16d\JJ	.	.	.	.	.	.	.	.	.	.	.	.	.	.	.	.	.	.	.	.
!LO:TX:a:t=P:problem=mixed beam	!	!	!	!	!	!	!	!	!	!	!	!	!	!	!	!	!	!	!	!	!
16DD/LL	16F#</LL	.	.	.	.	.	.	.	.	.	.	.	.	.	.	.	.	.	.	.	.
16D\	16A</	.	.	.	.	.	.	.	.	.	.	.	.	.	.	.	.	.	.	.	.
16DD/	16F#</	.	.	.	.	.	.	.	.	.	.	.	.	.	.	.	.	.	.	.	.
16D\	16A</JJ	.	.	.	.	.	.	.	.	.	.	.	.	.	.	.	.	.	.	.	.
16DD/	16AA</LL	.	.	.	.	.	.	.	.	.	.	.	.	.	.	.	.	.	.	.	.
16D\	16F#</	.	.	.	.	.	.	.	.	.	.	.	.	.	.	.	.	.	.	.	.
16DD/	16AA</	.	.	.	.	.	.	.	.	.	.	.	.	.	.	.	.	.	.	.	.
16D\JJ	16F#</JJ	.	.	.	.	.	.	.	.	.	.	.	.	.	.	.	.	.	.	.	.
*Xtremolo	*	*	*	*	*	*	*	*	*	*	*	*	*	*	*	*	*	*	*	*	*
=42	=42	=42	=42	=42	=42	=42	=42	=42	=42	=42	=42	=42	=42	=42	=42	=42	=42	=42	=42	=42	=42
1DD;<	1D<;>)	.	1r;>	.	.	.	1r;>	.	.	1r;>	.	.	.	1r;>	.	.	.	1ryy	.	.	.
==	==	==	==	==	==	==	==	==	==	==	==	==	==	==	==	==	==	==	==	==	==
*-	*-	*-	*-	*-	*-	*-	*-	*-	*-	*-	*-	*-	*-	*-	*-	*-	*-	*-	*-	*-	*-
!!!system-decoration: s1[s2,s3,s4,s5][(s6,s7)]
!!!RDF**kern: j = marked note, color=grey
!!!RDF**kern: | = vertical stroke
!!!RDF**kern: > = above
!!!RDF**kern: < = below
!!!AIN: 1 alto 2 empty 1 forte 1 soprn 1 tenor
!!!ENC: Anastazja Marusiak
!!!END: 2021-09-23
!!!ENC: Antoni Szymański
!!!END: 2021-10-10
